about/src/icon-behance.svg

<svg clip-rule="evenodd" fill-rule="evenodd" stroke-linejoin="round" stroke-miterlimit="2" viewBox="0 0 100 100" xmlns="http://www.w3.org/2000/svg"><path d="m0 0h100v100h-100z" fill="none"/><g fill-rule="nonzero"><path d="m269.655 159.55h75.598v-22.216h-75.598zm8.026 94.428h6.198c28.331 0 56.663-.076 84.992.087 3.903.022 5.563-1.159 5.277-5.007-.616-8.289-.431-16.729-1.974-24.841-4.621-24.297-17.382-42.169-42.527-48.224-8.457-2.036-17.519-2.696-26.231-2.317-23.628 1.027-42.963 10.577-54.788 31.891-11.32 20.405-14.082 42.132-7.425 64.705 6.756 22.909 21.935 37.235 45.093 42.812 13.929 3.353 28.095 3.509 42.188 1.033 10.437-1.833 20.292-5.382 28.588-12.294 10.966-9.136 15.487-21.034 15.352-35.265h-32.262c-1.212 9.667-6.903 15.802-15.972 17.674-6.881 1.421-14.283 2.148-21.194 1.232-16.476-2.183-25.469-13.653-25.315-31.486m-202.417 57.481c1.427.102 2.248.211 3.069.211 31.49.008 62.98.056 94.47-.051 4.303-.014 8.68-.434 12.892-1.302 21.703-4.471 38.022-15.495 42.924-38.398 1.714-8.005 2.112-16.644 1.224-24.787-2.404-22.051-11.489-32.444-30.577-36.4 1.935-.839 3.389-1.508 4.872-2.106 7.261-2.93 12.698-7.857 16.114-14.907 9.624-19.862 1.376-48.024-17.424-59.55-9.83-6.027-20.666-7.98-32.029-7.962-30.323.048-60.647.011-90.971.026-1.45.001-2.9.178-4.564.287zm-75.264-88.404c-.304-122.583 99.006-222.267 221.858-222.691 122.691-.424 222.52 99.167 222.794 222.264.272 122.762-99.602 222.809-222.363 222.749-122.668-.06-221.982-99.39-222.289-222.322" transform="matrix(.220396 0 0 .220218 1.000442388 .9201502696)"/><path d="m0 49.472v-49.186c1.6-.09 3.177-.254 4.753-.255 15.807-.019 31.614-.044 47.421.001 10.242.029 17.518 4.927 19.633 14.915 1.338 6.317 1.358 13.245.348 19.643-1.318 8.355-7.87 13.445-16.317 14.533-2.301.297-4.648.331-6.974.335-16.12.027-32.241.014-48.864.014" transform="matrix(.220396 0 0 .220218 26.919673176 51.402660328)"/><path d="m0 40.997v-40.9c1.86-.087 3.615-.239 5.37-.241 15.15-.019 30.3-.021 45.45-.006 8.975.008 14.44 3.97 15.476 12.791.704 5.995.198 12.306-.853 18.285-1.04 5.918-5.302 9.893-11.525 9.982-17.791.254-35.589.089-53.918.089" transform="matrix(.220396 0 0 .220218 26.920334364 36.016469104)"/><path d="m0 30.016c2.313-17.989 17.433-30.016 35.21-28.379 15.305 1.408 25.787 13.268 24.821 28.379z" transform="matrix(.220396 0 0 .220218 62.178625256 44.736661468)"/></g></svg>

<?xml version="1.0" encoding="UTF-8" standalone="no"?>
<!DOCTYPE svg PUBLIC "-//W3C//DTD SVG 1.1//EN" "http://www.w3.org/Graphics/SVG/1.1/DTD/svg11.dtd">
<svg width="100%" height="100%" viewBox="0 0 100 100" version="1.1" xmlns="http://www.w3.org/2000/svg" xmlns:xlink="http://www.w3.org/1999/xlink" xml:space="preserve" xmlns:serif="http://www.serif.com/" style="fill-rule:evenodd;clip-rule:evenodd;stroke-linejoin:round;stroke-miterlimit:2;">
    <g transform="matrix(1,0,0,1,-600,0)">
        <rect id="icon-behance" x="600" y="0" width="100" height="100" style="fill:none;"/>
        <g id="icon-behance1" serif:id="icon-behance">
            <g transform="matrix(0.220396,0,0,0.220218,595.556,-4.3997)">
                <g transform="matrix(1,0,0,1,24.703,24.1572)">
                    <path d="M269.655,159.55L345.253,159.55L345.253,137.334L269.655,137.334L269.655,159.55ZM277.681,253.978L283.879,253.978C312.21,253.978 340.542,253.902 368.871,254.065C372.774,254.087 374.434,252.906 374.148,249.058C373.532,240.769 373.717,232.329 372.174,224.217C367.553,199.92 354.792,182.048 329.647,175.993C321.19,173.957 312.128,173.297 303.416,173.676C279.788,174.703 260.453,184.253 248.628,205.567C237.308,225.972 234.546,247.699 241.203,270.272C247.959,293.181 263.138,307.507 286.296,313.084C300.225,316.437 314.391,316.593 328.484,314.117C338.921,312.284 348.776,308.735 357.072,301.823C368.038,292.687 372.559,280.789 372.424,266.558L340.162,266.558C338.95,276.225 333.259,282.36 324.19,284.232C317.309,285.653 309.907,286.38 302.996,285.464C286.52,283.281 277.527,271.811 277.681,253.978M75.264,311.459C76.691,311.561 77.512,311.67 78.333,311.67C109.823,311.678 141.313,311.726 172.803,311.619C177.106,311.605 181.483,311.185 185.695,310.317C207.398,305.846 223.717,294.822 228.619,271.919C230.333,263.914 230.731,255.275 229.843,247.132C227.439,225.081 218.354,214.688 199.266,210.732C201.201,209.893 202.655,209.224 204.138,208.626C211.399,205.696 216.836,200.769 220.252,193.719C229.876,173.857 221.628,145.695 202.828,134.169C192.998,128.142 182.162,126.189 170.799,126.207C140.476,126.255 110.152,126.218 79.828,126.233C78.378,126.234 76.928,126.411 75.264,126.52L75.264,311.459ZM0,223.055C-0.304,100.472 99.006,0.788 221.858,0.364C344.549,-0.06 444.378,99.531 444.652,222.628C444.924,345.39 345.05,445.437 222.289,445.377C99.621,445.317 0.307,345.987 0,223.055" style="fill-rule:nonzero;"/>
                </g>
                <g transform="matrix(1,0,0,1,142.306,253.396)">
                    <path d="M0,49.472L0,0.286C1.6,0.196 3.177,0.032 4.753,0.031C20.56,0.012 36.367,-0.013 52.174,0.032C62.416,0.061 69.692,4.959 71.807,14.947C73.145,21.264 73.165,28.192 72.155,34.59C70.837,42.945 64.285,48.035 55.838,49.123C53.537,49.42 51.19,49.454 48.864,49.458C32.744,49.485 16.623,49.472 0,49.472" style="fill-rule:nonzero;"/>
                </g>
                <g transform="matrix(1,0,0,1,142.309,183.528)">
                    <path d="M0,40.997L0,0.097C1.86,0.01 3.615,-0.142 5.37,-0.144C20.52,-0.163 35.67,-0.165 50.82,-0.15C59.795,-0.142 65.26,3.82 66.296,12.641C67,18.636 66.494,24.947 65.443,30.926C64.403,36.844 60.141,40.819 53.918,40.908C36.127,41.162 18.329,40.997 0,40.997" style="fill-rule:nonzero;"/>
                </g>
                <g transform="matrix(1,0,0,1,302.286,223.126)">
                    <path d="M0,30.016C2.313,12.027 17.433,0 35.21,1.637C50.515,3.045 60.997,14.905 60.031,30.016L0,30.016Z" style="fill-rule:nonzero;"/>
                </g>
            </g>
        </g>
    </g>
</svg>
